X:90
T: Hitchner's Phoenix
C: J.Derrane
Z: B.Black
R: reel
M: 4/4
L: 1/8
K: A %original key
A,CEA ceab | c'bac' bafg | a2 ga fece | (3dcB (3cBA BAFA |
A,CEA ceab | c'bac' bafg | agaf ecaf |1 ecBe cAFA :|2 ecBc cA Az ||
(3aba ga fece | (3dcB (3cBA BAFA | ae^de fecf | ecAB cB B2 |
|1 (3aba ga fece | (3dcB (3cBA BAFA | A,CEA ceaf | ecBe cA Az :|
|2 ab (3c'ba fgaf | (3efe (3cBA BcFA | A,CEA ceaf | ecBc A2 z2 ||
